X:19192
T:Yellow Joak
B:Walsh
M:6/8
L:1/8
N:
K:F
f2 c A>Bc| F2 c f3| afd gec| fcB A2 c|A>GF C>FE |F3 F3:: c2 c acB |gBA G3|\
c2 c acB |gBA G2 f/2g/2| afd gec| fcB A2 B/2c/2| dBG cAF| BGF E2 c|\
A>GF C>FE|F3 F3:|


